X: 24328
T: Lough Mountain
R: reel
M: 4/4
K: Edorian
|:B2BE FEFA|Beec dBAF|ABAG FDFA|dfed BAFA|
B2BE FEFA|Beec dBAF|~A3B defe|dBAF FEED:|
|:e2ed ~B3d|eg fd edBc|dcdB ADFA|dfed BAF2|
~e3d BABd|egfd edBc|d3e f2fe|dBAF FEED:|

